icons/code-24.svg

<svg xmlns="http://www.w3.org/2000/svg" width="24" height="24" viewBox="0 0 24 24"><path d="M15.22 4.97a.75.75 0 011.06 0l6.5 6.5a.75.75 0 010 1.06l-6.5 6.5a.749.749 0 01-1.275-.326.749.749 0 01.215-.734L21.19 12l-5.97-5.97a.75.75 0 010-1.06zm-6.44 0a.75.75 0 010 1.06L2.81 12l5.97 5.97a.749.749 0 01-.326 1.275.749.749 0 01-.734-.215l-6.5-6.5a.75.75 0 010-1.06l6.5-6.5a.75.75 0 011.06 0z"/></svg>

<svg xmlns="http://www.w3.org/2000/svg" width="24" height="24" viewBox="0 0 24 24">
  <defs/>
  <path d="M15.22,4.97 C15.513,4.678 15.987,4.678 16.28,4.97 L22.78,11.47 C23.072,11.763 23.072,12.237 22.78,12.53 L16.28,19.03 C16.093,19.231 15.811,19.313 15.546,19.245 C15.28,19.178 15.072,18.97 15.005,18.704 C14.937,18.439 15.019,18.157 15.22,17.97 L21.19,12 L15.22,6.03 C14.928,5.737 14.928,5.263 15.22,4.97 Z M8.78,4.97 C9.072,5.263 9.072,5.737 8.78,6.03 L2.81,12 L8.78,17.97 C8.981,18.157 9.063,18.439 8.995,18.704 C8.928,18.97 8.72,19.178 8.454,19.245 C8.189,19.313 7.907,19.231 7.72,19.03 L1.22,12.53 C0.928,12.237 0.928,11.763 1.22,11.47 L7.72,4.97 C8.013,4.678 8.487,4.678 8.78,4.97 Z"/>
</svg>
